X:1
T:Flower of Scotland  "CYMRU"
M:6/8
L:1/8
Q:80
C:
S:Seconds
K:HP
|: d | \
{g}d2c{gBd}B3 | \
{g}f3-f2{g}f | \
{gBd}B2d{gcd}c3 |
{G}c2B{g}B2c | | \
{Gdc}d3-d2{g}d | \
{g}ede{gfg}f3 |
{e}f2{g}f{g}c2{GdG}c | \
{g}cBc{Gdc}d2e | | \
{g}d2c{gBd}B3 |
{g}f3-f2d | \
{g}ede{gfg}f3 | \
{g}f3-f2d| |
{gef}edc{Gdc}d2g | \
{fg}f3-f2{e}f | \
{gef}e2g{fg}f3 |
-f3{e}f2 :|
